logos/cloudflare-workers-alt.svg

<?xml version="1.0" encoding="UTF-8"?>
<svg width="512px" height="136px" viewBox="0 0 512 136" version="1.1" xmlns="http://www.w3.org/2000/svg" preserveAspectRatio="xMidYMid">
    <title>CloudFrame Workers</title>
    <defs>
        <linearGradient x1="50%" y1="100%" x2="25.7%" y2="8.7%" id="cfWorkersLinearGradient-1">
            <stop stop-color="#EB6F07" offset="0%"></stop>
            <stop stop-color="#FAB743" offset="100%"></stop>
        </linearGradient>
        <linearGradient x1="81%" y1="83.7%" x2="40.5%" y2="29.5%" id="cfWorkersLinearGradient-2">
            <stop stop-color="#D96504" offset="0%"></stop>
            <stop stop-color="#D96504" stop-opacity="0" offset="100%"></stop>
        </linearGradient>
        <linearGradient x1="42%" y1="8.7%" x2="84%" y2="79.9%" id="cfWorkersLinearGradient-3">
            <stop stop-color="#EB6F07" offset="0%"></stop>
            <stop stop-color="#EB720A" stop-opacity="0" offset="100%"></stop>
        </linearGradient>
        <linearGradient x1="50%" y1="100%" x2="25.7%" y2="8.7%" id="cfWorkersLinearGradient-4">
            <stop stop-color="#EE6F05" offset="0%"></stop>
            <stop stop-color="#FAB743" offset="100%"></stop>
        </linearGradient>
        <linearGradient x1="-33.2%" y1="100%" x2="91.7%" y2="0%" id="cfWorkersLinearGradient-5">
            <stop stop-color="#D96504" stop-opacity="0.8" offset="0%"></stop>
            <stop stop-color="#D96504" stop-opacity="0.2" offset="49.8%"></stop>
            <stop stop-color="#D96504" stop-opacity="0" offset="100%"></stop>
        </linearGradient>
        <linearGradient x1="50%" y1="100%" x2="25.7%" y2="8.7%" id="cfWorkersLinearGradient-6">
            <stop stop-color="#FFA95F" offset="0%"></stop>
            <stop stop-color="#FFEBC8" offset="100%"></stop>
        </linearGradient>
        <linearGradient x1="8.1%" y1="1.1%" x2="96.5%" y2="48.8%" id="cfWorkersLinearGradient-7">
            <stop stop-color="#FFFFFF" stop-opacity="0.5" offset="0%"></stop>
            <stop stop-color="#FFFFFF" stop-opacity="0.1" offset="100%"></stop>
        </linearGradient>
        <linearGradient x1="-13.7%" y1="104.2%" x2="100%" y2="46.2%" id="cfWorkersLinearGradient-8">
            <stop stop-color="#FFFFFF" stop-opacity="0.5" offset="0%"></stop>
            <stop stop-color="#FFFFFF" stop-opacity="0.1" offset="100%"></stop>
        </linearGradient>
    </defs>
    <g>
        <path d="M199.787234,115.616967 L180.788632,59.5963748 L193.899834,59.5963748 L205.4218,97.2685075 L217.88286,59.4518988 L228.357375,59.4518988 L240.890673,97.2685075 L252.448758,59.5963748 L265.19877,59.5963748 L246.236287,115.616967 L235.581178,115.616967 L223.011761,79.209 L210.478462,115.616967 L199.823353,115.616967 L199.787234,115.616967 Z M288.712249,116.158752 C275.492689,116.158752 265.740555,106.406618 265.740555,94.1622722 L265.740555,94.0177962 C265.740555,81.737331 275.601047,71.8407209 288.856725,71.8407209 C302.040166,71.8407209 311.828419,81.592855 311.828419,93.8733201 L311.828419,94.0177962 C311.828419,106.226023 301.967928,116.158752 288.712249,116.158752 L288.712249,116.158752 Z M288.856725,105.756476 C295.755457,105.756476 299.909144,100.446981 299.909144,94.1622722 L299.909144,94.0177962 C299.909144,87.7330875 295.358148,82.2429973 288.712249,82.2429973 C281.777398,82.2429973 277.65983,87.5524925 277.65983,93.8372011 L277.65983,94.0177962 C277.65983,100.266386 282.174707,105.756476 288.856725,105.756476 Z M320.56922,115.219658 L320.56922,72.5992202 L332.632971,72.5992202 L332.632971,81.1955458 C335.089064,75.3442654 339.062156,71.5156498 346.213721,71.8046019 L346.213721,84.4462572 L345.635817,84.4462572 C337.617395,84.4462572 332.66909,89.3223242 332.66909,99.4717674 L332.66909,115.219658 L320.605339,115.219658 L320.56922,115.219658 Z M353.798714,115.219658 L353.798714,57.2125198 L365.862465,57.2125198 L365.862465,88.1303967 L379.985,72.5992202 L394.432606,72.5992202 L378.251287,89.3945622 L395.01051,115.219658 L381.176928,115.219658 L370.052271,97.8102927 L365.862465,102.252932 L365.862465,115.219658 L353.762595,115.219658 L353.798714,115.219658 Z M419.029655,116.158752 C406.207405,116.158752 396.780342,107.201237 396.780342,94.1622722 L396.780342,94.0177962 C396.780342,81.8456881 405.448906,71.8407209 417.837728,71.8407209 C432.032501,71.8407209 438.570042,82.8931395 438.570042,94.9568906 C438.570042,95.8959849 438.497804,97.0156744 438.389447,98.1353639 L408.771855,98.1353639 C409.963782,103.625454 413.756279,106.478856 419.174131,106.478856 C423.219461,106.478856 426.18122,105.214691 429.50417,102.108456 L436.402902,108.248688 C432.189979,113.490252 425.750124,116.435716 419.029655,116.194871 L419.029655,116.158752 Z M408.59126,90.5864897 L426.795244,90.5864897 C426.072863,85.1686375 422.89439,81.556736 417.837728,81.556736 C412.817185,81.556736 409.530354,85.0963994 408.59126,90.5864897 L408.59126,90.5864897 Z M447.527558,115.219658 L447.527558,72.5992202 L459.627428,72.5992202 L459.627428,81.1955458 C462.083521,75.3442654 466.056613,71.5156498 473.208178,71.8046019 L473.208178,84.4462572 L472.558036,84.4462572 C464.539614,84.4462572 459.627428,89.3223242 459.627428,99.4717674 L459.627428,115.219658 L447.491439,115.219658 L447.527558,115.219658 Z M495.710324,116.014276 C489.750687,116.014276 483.068669,114.02773 477.434103,109.585092 L482.599122,101.638908 C486.449932,104.643937 491.123221,106.407442 495.999276,106.69557 C499.502821,106.69557 501.092057,105.431405 501.092057,103.553216 L501.092057,103.372621 C501.092057,100.772052 496.97449,99.8690766 492.279018,98.460435 C486.31938,96.6906033 479.565124,93.9094391 479.565124,85.6743037 L479.565124,85.4937086 C479.565124,76.825145 486.572213,71.985197 495.13242,71.985197 C500.550272,71.985197 506.437672,73.7911477 511.024787,76.933502 L506.437672,85.2408755 C502.968514,82.9899008 498.999531,81.6255628 494.879587,81.2677839 C491.990066,81.2677839 490.436948,82.5680684 490.436948,84.2295431 L490.436948,84.3740191 C490.436948,86.7578741 494.518397,87.8775636 499.105512,89.4668003 C505.065149,91.4533461 512,94.3067483 512,102.108456 L512,102.252932 C512,111.716114 504.920673,116.014276 495.710324,116.014276 L495.710324,116.014276 Z" fill="#232324"></path>
        <path d="M207.697298,23.910788 L213.331865,23.910788 L213.331865,39.1168933 L223.192356,39.1168933 L223.192356,43.9929603 L207.661179,43.9929603 L207.661179,23.910788 L207.697298,23.910788 Z M228.971398,34.0241122 L228.971398,33.9518741 C228.971398,28.1728317 233.66687,23.4773598 239.91546,23.4773598 C242.743018,23.3797435 245.489812,24.4301149 247.530792,26.3894558 C249.571772,28.3487968 250.733337,31.0504491 250.751164,33.8796361 L250.751164,33.9518741 C250.751164,39.7309165 246.055692,44.3902695 239.843222,44.3902695 C237.009524,44.4978861 234.253279,43.451968 232.204349,41.4915309 C230.15542,39.5310938 228.988912,36.8236795 228.971398,33.9879932 L228.971398,34.0241122 Z M245.080479,34.0241122 L245.080479,33.9518741 C245.080479,31.0623529 242.985576,28.5340219 239.879341,28.5340219 C236.809224,28.5340219 234.750441,30.9901149 234.750441,33.9157551 L234.750441,33.9518741 C234.750441,36.8413953 236.845343,39.3697264 239.91546,39.3697264 C243.021695,39.3697264 245.080479,36.9136334 245.080479,33.9879932 L245.080479,34.0241122 Z M257.686015,35.1799207 L257.686015,23.910788 L263.392819,23.910788 L263.392819,35.1076826 C263.392819,37.9972038 264.873699,39.3336074 267.113078,39.3336074 C269.352457,39.3336074 270.833337,38.0333228 270.833337,35.2160397 L270.833337,23.910788 L276.540141,23.910788 L276.540141,35.0354446 C276.540141,41.5368673 272.819882,44.3541505 267.04084,44.3541505 C261.261798,44.3541505 257.649896,41.4646293 257.649896,35.1799207 L257.686015,35.1799207 Z M285.136467,23.910788 L292.938174,23.910788 C300.161977,23.910788 304.387902,28.0283557 304.387902,33.8435171 L304.387902,33.9157551 C304.387902,39.6947975 300.125858,44.0290793 292.829817,44.0290793 L285.136467,44.0290793 L285.136467,23.8746689 L285.136467,23.910788 Z M293.08265,39.0807743 C296.405599,39.0807743 298.644978,37.2387045 298.644978,33.9518741 L298.644978,33.9518741 C298.644978,30.7011628 296.405599,28.859093 293.046531,28.859093 L290.771033,28.859093 L290.771033,39.0085362 L293.046531,39.0085362 L293.046531,39.0446553 L293.08265,39.0807743 Z M312.586918,23.910788 L328.804356,23.910788 L328.804356,28.786855 L318.185365,28.786855 L318.185365,32.2181614 L327.793023,32.2181614 L327.793023,36.8413953 L318.185365,36.8413953 L318.185365,43.9929603 L312.586918,43.9929603 L312.586918,23.910788 L312.586918,23.910788 Z M336.606063,23.910788 L342.20451,23.910788 L342.20451,39.1168933 L352.028882,39.1168933 L352.028882,43.9929603 L336.606063,43.9929603 L336.606063,23.910788 L336.606063,23.910788 Z M366.693202,23.7663119 L372.111055,23.7663119 L380.779618,43.9929603 L374.711624,43.9929603 L373.266863,40.4171778 L365.429037,40.4171778 L363.984276,44.0290793 L358.096877,44.0290793 L366.693202,23.7663119 L366.693202,23.7663119 Z M371.641508,36.082896 L369.402129,30.3760917 L367.126631,36.082896 L371.641508,36.082896 Z M387.967302,23.910788 L397.57496,23.910788 C400.681196,23.910788 402.812218,24.7054063 404.18474,26.0779289 C405.376668,27.2337373 405.990691,28.786855 405.990691,30.7734008 L405.990691,30.8456388 C405.990691,33.9518741 404.329216,35.974539 401.837004,36.9858714 L406.676952,44.0651984 L400.175529,44.0651984 L396.057962,37.9972038 L393.601869,37.9972038 L393.601869,44.0651984 L387.967302,44.0651984 L387.967302,23.910788 L387.967302,23.910788 Z M397.322127,33.554565 C399.236435,33.554565 400.320005,32.6154706 400.320005,31.17071 L400.320005,31.098472 C400.320005,29.5453543 399.164197,28.750736 397.286008,28.750736 L393.56575,28.750736 L393.56575,33.554565 L397.322127,33.554565 Z M414.08135,23.910788 L430.334907,23.910788 L430.334907,28.6062599 L419.679798,28.6062599 L419.679798,31.6763762 L429.395813,31.6763762 L429.395813,36.082896 L419.643679,36.082896 L419.643679,39.2613694 L430.551621,39.2613694 L430.551621,43.9929603 L414.117469,43.9929603 L414.117469,23.910788 L414.08135,23.910788 Z M195.380714,36.3718482 C194.582262,38.2095433 192.761031,39.3904975 190.75748,39.3697264 C187.687364,39.3697264 185.592461,36.8413953 185.592461,33.9518741 L185.592461,33.9518741 C185.592461,31.0623529 187.651245,28.5340219 190.721361,28.5340219 C192.874491,28.5167432 194.8024,29.8648298 195.52519,31.8930903 L201.520947,31.8930903 C200.454667,26.8856427 195.946183,23.3671972 190.829718,23.5495978 C184.581129,23.5495978 179.885657,28.2450698 179.885657,34.0241122 L179.885657,34.0602312 C179.903171,36.8959175 181.069679,39.6033318 183.118608,41.5637689 C185.167537,43.524206 187.923783,44.5701242 190.75748,44.4625075 C196.103094,44.4625075 200.2929,41.0312011 201.376471,36.4440862 L195.452952,36.4079672 L195.380714,36.3718482 Z" fill="#656566"></path>
        <g>
            <path d="M38.6241888,1.95042681 L56.3225062,33.8796361 L40.0689494,63.1360383 C38.4870031,65.976681 38.4870031,69.4335064 40.0689494,72.2741491 L56.3225062,101.602789 L38.6241888,133.531999 C35.2939884,131.880981 32.5285537,129.278958 30.6780055,126.055363 L2.50517377,77.1140971 C-0.835057924,71.2989961 -0.835057924,64.1473104 2.50517377,58.3322093 L30.6780055,9.39094391 C32.5341466,6.18072596 35.2990294,3.59179024 38.6241888,1.95042681 Z" fill="url(#cfWorkersLinearGradient-1)"></path>
            <path d="M40.0689494,63.1721573 C38.5003781,66.0034174 38.5003781,69.442889 40.0689494,72.2741491 L56.3225062,101.602789 L38.6241888,133.531999 C35.2939884,131.880981 32.5285537,129.278958 30.6780055,126.055363 L2.50517377,77.1140971 C0.26579484,73.2493625 12.7990931,68.6261286 40.0689494,63.2082763 L40.0689494,63.1721573 Z" fill="url(#cfWorkersLinearGradient-2)" opacity="0.7"></path>
            <path d="M40.4301396,5.16501915 L56.3225062,33.8796361 L53.6858181,38.466751 L39.6716403,14.7365581 C35.6263106,8.12677839 29.449959,11.5580848 21.7204898,24.9221204 L22.8762983,22.9355746 L30.6780055,9.39094391 C32.5148831,6.19123367 35.2534714,3.60339339 38.5519508,1.95042681 L40.3940206,5.16501915 L40.4301396,5.16501915 Z" fill="url(#cfWorkersLinearGradient-3)" opacity="0.5"></path>
            <path d="M119.530783,9.39094391 L147.703614,58.3322093 C151.062683,64.1112517 151.062683,71.3350547 147.703614,77.1140971 L119.530783,126.055363 C116.177872,131.862777 109.983048,135.442009 103.277226,135.446306 L75.104394,135.446306 L110.139839,72.2741491 C111.70841,69.442889 111.70841,66.0034174 110.139839,63.1721573 L75.104394,0 L103.277226,0 C109.983048,0.00429780903 116.177872,3.58352966 119.530783,9.39094391 L119.530783,9.39094391 Z" fill="url(#cfWorkersLinearGradient-4)"></path>
            <path d="M101.832465,135.229592 L74.0208236,135.482425 L107.683746,71.985197 C109.211982,69.1180497 109.211982,65.6781145 107.683746,62.8109672 L74.0208236,0 L80.3777702,0 L115.702167,62.522015 C117.405374,65.5273176 117.391635,69.2094025 115.666048,72.2019111 C108.063542,85.4149079 100.514606,98.6586555 93.0194255,111.932828 C86.1568126,123.996579 89.1185719,131.762167 101.832465,135.229592 L101.832465,135.229592 Z" fill="url(#cfWorkersLinearGradient-5)"></path>
            <path d="M46.9315623,135.446306 C44.0420411,135.446306 41.1525199,134.760045 38.6241888,133.531999 L73.3706813,70.8655075 C74.4542517,68.9150807 74.4542517,66.5312257 73.3706813,64.5807989 L38.6241888,1.95042681 C41.2069881,0.671509029 44.0494683,0.00414412223 46.9315623,0 L75.104394,0 L110.139839,63.1721573 C111.70841,66.0034174 111.70841,69.442889 110.139839,72.2741491 L75.104394,135.446306 L46.9315623,135.446306 Z" fill="url(#cfWorkersLinearGradient-6)"></path>
            <path d="M107.683746,64.5807989 L71.8536827,0 L75.104394,0 L110.139839,63.1721573 C111.70841,66.0034174 111.70841,69.442889 110.139839,72.2741491 L75.104394,135.446306 L71.8536827,135.446306 L107.683746,70.8655075 C108.767316,68.9150807 108.767316,66.5312257 107.683746,64.5807989 Z" fill="url(#cfWorkersLinearGradient-7)" opacity="0.6"></path>
            <path d="M73.3706813,64.5807989 L38.6241888,1.95042681 C39.7077593,1.37252257 41.0080438,0.939094391 42.2360903,0.577904241 C49.8933215,14.339249 61.1985732,35.2160397 76.1879645,63.1721573 C77.7565358,66.0034174 77.7565358,69.442889 76.1879645,72.2741491 L41.6943051,134.723926 C40.4662586,134.362736 39.8161163,134.109903 38.6603078,133.568118 L73.3345623,70.9016265 C74.4181327,68.9511997 74.4181327,66.5673447 73.3345623,64.6169179 L73.3706813,64.5807989 Z" fill="url(#cfWorkersLinearGradient-8)" opacity="0.6"></path>
        </g>
    </g>
</svg>

<?xml version="1.0" encoding="UTF-8"?>
<svg width="512" height="136" version="1.1" xmlns="http://www.w3.org/2000/svg" preserveAspectRatio="xMidYMid">
	<defs>
		<linearGradient x1="50%" y1="100%" x2="25.7%" y2="8.7%" id="a">
			<stop stop-color="#EB6F07" offset="0%"/>
			<stop stop-color="#FAB743" offset="100%"/>
		</linearGradient>
		<linearGradient x1="81%" y1="83.7%" x2="40.5%" y2="29.5%" id="b">
			<stop stop-color="#D96504" offset="0%"/>
			<stop stop-color="#D96504" stop-opacity="0" offset="100%"/>
		</linearGradient>
		<linearGradient x1="42%" y1="8.7%" x2="84%" y2="79.9%" id="c">
			<stop stop-color="#EB6F07" offset="0%"/>
			<stop stop-color="#EB720A" stop-opacity="0" offset="100%"/>
		</linearGradient>
		<linearGradient x1="50%" y1="100%" x2="25.7%" y2="8.7%" id="d">
			<stop stop-color="#EE6F05" offset="0%"/>
			<stop stop-color="#FAB743" offset="100%"/>
		</linearGradient>
		<linearGradient x1="-33.2%" y1="100%" x2="91.7%" y2="0%" id="e">
			<stop stop-color="#D96504" stop-opacity=".8" offset="0%"/>
			<stop stop-color="#D96504" stop-opacity=".2" offset="49.8%"/>
			<stop stop-color="#D96504" stop-opacity="0" offset="100%"/>
		</linearGradient>
		<linearGradient x1="50%" y1="100%" x2="25.7%" y2="8.7%" id="f">
			<stop stop-color="#FFA95F" offset="0%"/>
			<stop stop-color="#FFEBC8" offset="100%"/>
		</linearGradient>
		<linearGradient x1="8.1%" y1="1.1%" x2="96.5%" y2="48.8%" id="g">
			<stop stop-color="#FFF" stop-opacity=".5" offset="0%"/>
			<stop stop-color="#FFF" stop-opacity=".1" offset="100%"/>
		</linearGradient>
		<linearGradient x1="-13.7%" y1="104.2%" x2="100%" y2="46.2%" id="h">
			<stop stop-color="#FFF" stop-opacity=".5" offset="0%"/>
			<stop stop-color="#FFF" stop-opacity=".1" offset="100%"/>
		</linearGradient>
	</defs>
	<path d="m199.787 115.617-18.998-56.02h13.11l11.523 37.672 12.46-37.817h10.475l12.534 37.817 11.558-37.673h12.75l-18.963 56.021h-10.655l-12.57-36.408-12.533 36.408H199.787Zm88.925.542c-13.22 0-22.971-9.752-22.971-21.997v-.144c0-12.28 9.86-22.177 23.116-22.177 13.183 0 22.971 9.752 22.971 22.032v.145c0 12.208-9.86 22.14-23.116 22.14Zm.145-10.403c6.898 0 11.052-5.309 11.052-11.594v-.144c0-6.285-4.55-11.775-11.197-11.775-6.935 0-11.052 5.31-11.052 11.594v.18c0 6.25 4.515 11.74 11.197 11.74Zm31.712 9.464V72.6h12.064v8.596c2.456-5.852 6.43-9.68 13.58-9.391v12.641h-.577c-8.019 0-12.967 4.876-12.967 15.026v15.748h-12.1Zm33.23 0V57.213h12.063V88.13l14.123-15.53h14.448L378.25 89.394l16.76 25.825h-13.834l-11.125-17.41-4.19 4.443v12.967h-12.1.037Zm65.23.939c-12.822 0-22.249-8.958-22.249-21.997v-.144c0-12.172 8.669-22.177 21.058-22.177 14.195 0 20.732 11.052 20.732 23.116 0 .939-.072 2.059-.18 3.178h-29.618c1.192 5.49 4.984 8.344 10.402 8.344 4.045 0 7.007-1.264 10.33-4.37l6.899 6.14a21.31 21.31 0 0 1-17.373 7.946v-.036Zm-10.438-25.573h18.204c-.722-5.417-3.9-9.03-8.957-9.03-5.02 0-8.308 3.54-9.247 9.03Zm38.937 24.634V72.6h12.1v8.596c2.456-5.852 6.429-9.68 13.58-9.391v12.641h-.65c-8.018 0-12.93 4.876-12.93 15.026v15.748H447.49h.037Zm48.182.794c-5.96 0-12.641-1.986-18.276-6.429l5.165-7.946a24.091 24.091 0 0 0 13.4 5.057c3.504 0 5.093-1.265 5.093-3.143v-.18c0-2.6-4.118-3.504-8.813-4.913-5.96-1.77-12.714-4.55-12.714-12.786v-.18c0-8.669 7.007-13.509 15.567-13.509 5.418 0 11.306 1.806 15.893 4.949l-4.587 8.307a25.247 25.247 0 0 0-11.558-3.973c-2.89 0-4.443 1.3-4.443 2.962v.144c0 2.384 4.081 3.504 8.669 5.093 5.96 1.986 12.894 4.84 12.894 12.641v.145c0 9.463-7.08 13.761-16.29 13.761Z" fill="#232324"/>
	<path d="M207.697 23.91h5.635v15.207h9.86v4.876h-15.53V23.911h.035Zm21.274 10.114v-.072c0-5.78 4.696-10.475 10.944-10.475a10.475 10.475 0 0 1 10.836 10.403v.072c0 5.779-4.695 10.438-10.908 10.438a10.475 10.475 0 0 1-10.872-10.402v.036Zm16.11 0v-.072c0-2.89-2.095-5.418-5.202-5.418-3.07 0-5.129 2.456-5.129 5.382v.036c0 2.89 2.095 5.418 5.165 5.418 3.107 0 5.165-2.456 5.165-5.382v.036Zm12.605 1.156V23.91h5.707v11.198c0 2.89 1.48 4.226 3.72 4.226s3.72-1.3 3.72-4.118V23.911h5.707v11.124c0 6.502-3.72 9.32-9.5 9.32-5.778 0-9.39-2.89-9.39-9.175h.036Zm27.45-11.27h7.802c7.224 0 11.45 4.118 11.45 9.934v.072c0 5.779-4.262 10.113-11.558 10.113h-7.694V23.875v.036Zm7.947 15.17c3.323 0 5.562-1.841 5.562-5.128 0-3.25-2.24-5.093-5.598-5.093h-2.276v10.15h2.276v.036l.036.036Zm19.504-15.17h16.217v4.877h-10.619v3.431h9.608v4.623h-9.608v7.152h-5.598V23.911Zm24.02 0h5.598v15.207h9.824v4.876h-15.423V23.911Zm30.086-.144h5.418l8.669 20.227h-6.068l-1.445-3.576h-7.838l-1.445 3.612h-5.887l8.596-20.263Zm4.949 12.317-2.24-5.707-2.275 5.707h4.515Zm16.325-12.172h9.608c3.106 0 5.237.794 6.61 2.167 1.192 1.156 1.806 2.709 1.806 4.695v.073c0 3.106-1.662 5.129-4.154 6.14l4.84 7.08h-6.501l-4.118-6.069h-2.456v6.068h-5.635V23.911Zm9.355 9.644c1.914 0 2.998-.94 2.998-2.384v-.073c0-1.553-1.156-2.347-3.034-2.347h-3.72v4.804h3.756Zm16.76-9.644h16.253v4.695H419.68v3.07h9.716v4.407h-9.752v3.178h10.908v4.732h-16.435V23.911h-.036ZM195.38 36.37a4.984 4.984 0 0 1-4.624 2.999c-3.07 0-5.165-2.529-5.165-5.418 0-2.89 2.06-5.418 5.13-5.418a5.057 5.057 0 0 1 4.803 3.36h5.996a10.547 10.547 0 0 0-10.691-8.344c-6.249 0-10.944 4.695-10.944 10.474v.036a10.475 10.475 0 0 0 10.871 10.403c5.346 0 9.536-3.432 10.62-8.019l-5.924-.036-.072-.036Z" fill="#656566"/>
	<path d="m38.624 1.95 17.699 31.93-16.254 29.256a9.39 9.39 0 0 0 0 9.138l16.254 29.329-17.699 31.929a18.782 18.782 0 0 1-7.946-7.477L2.505 77.115a18.854 18.854 0 0 1 0-18.783L30.678 9.391a18.782 18.782 0 0 1 7.946-7.44Z" fill="url(#a)"/>
	<path d="M40.069 63.172a9.39 9.39 0 0 0 0 9.102l16.254 29.329-17.699 31.929a18.782 18.782 0 0 1-7.946-7.477L2.505 77.115C.265 73.248 12.8 68.625 40.07 63.207v-.036Z" fill="url(#b)" opacity=".7"/>
	<path d="M40.43 5.165 56.323 33.88l-2.637 4.587-14.014-23.73c-4.046-6.61-10.222-3.179-17.952 10.185l1.156-1.986L30.678 9.39a18.782 18.782 0 0 1 7.874-7.44l1.842 3.214h.036Z" fill="url(#c)" opacity=".5"/>
	<path d="m119.53 9.39 28.174 48.942c3.359 5.78 3.359 13.003 0 18.782l-28.173 48.941a18.782 18.782 0 0 1-16.254 9.391H75.104l35.036-63.172a9.39 9.39 0 0 0 0-9.102L75.104 0h28.173a18.782 18.782 0 0 1 16.254 9.39Z" fill="url(#d)"/>
	<path d="m101.832 135.23-27.811.252 33.663-63.497a9.752 9.752 0 0 0 0-9.174L74.02 0h6.357l35.324 62.522a9.752 9.752 0 0 1-.036 9.68 5643.208 5643.208 0 0 0-22.647 39.73c-6.862 12.065-3.9 19.83 8.813 23.298Z" fill="url(#e)"/>
	<path d="M46.932 135.446c-2.89 0-5.78-.686-8.308-1.914l34.747-62.666a6.482 6.482 0 0 0 0-6.285L38.624 1.95A18.782 18.782 0 0 1 46.932 0h28.172l35.036 63.172a9.39 9.39 0 0 1 0 9.102l-35.036 63.172H46.932Z" fill="url(#f)"/>
	<path d="M107.684 64.58 71.854 0h3.25l35.036 63.172a9.39 9.39 0 0 1 0 9.102l-35.036 63.172h-3.25l35.83-64.58a6.482 6.482 0 0 0 0-6.285Z" fill="url(#g)" opacity=".6"/>
	<path d="M73.37 64.58 38.625 1.95c1.084-.577 2.384-1.01 3.612-1.372C49.893 14.339 61.2 35.216 76.188 63.172a9.39 9.39 0 0 1 0 9.102l-34.494 62.45c-1.228-.361-1.878-.614-3.034-1.156l34.675-62.666a6.482 6.482 0 0 0 0-6.285l.036-.036Z" fill="url(#h)" opacity=".6"/>
</svg>
